!!!!SEGMENT: pl-wnifc--6735-n--003_klemczynski-julian--fantaisie-brillante-sur-la-romance-du-saule-finale.krn
!!!cenid: 18xx:3978
!!!COM: Klemczyński, Julian
!!!COM-rismID: pe30016420
!!!CDT: 1807-~1851
!!!CNT:
!!!OPR: Fantaisie brillante sur la Romance du Saule
!!!OTL: Finale
!!!OMV: 003
!!!PDT:
!!!AGN:
!!!SMS-siglum: PL-Wnifc
!!!SMS-shelfmark: 6735/n
!!!SMS-shelfwork: M
!!!SMS-variant:
!!!SMS-altvar:
!!!NIFC-rismSourceID: 1001157997
!!!NIFC-rismChildID: 1001158000
!!!NIFC-islandoraID: nifc:213460
!!!URL-pdf-islandora: https://repozytorium.nifc.pl/islandora/object/nifc%3A213460/datastream/PDF/view
!!!URL-scan: https://polish.musicsources.pl/pl/lokalizacje/galeria/klocki-introligatorskie/688 @EN{Scan on Polish Music Sources Website} @PL{Skany w portalu Dziedzictwo Muzyki Polskiej w otwartym dostępie}
!!!ONB-nifc: UWAGA: skany 10-13. Części utworu: 1. Introduzione, 2. Romanza. 3. Finale
!!!AIN: 2 piano
!!!key: g
**kern	**kern	**dynam
*part2	*part1	*part1
*staff2	*staff1	*
*I"Piano	*I"PIANO	*
*	*I'pf	*
*Ipiano	*Ipiano	*
*ICklav	*ICklav	*
*clefF4	*clefG2	*
*k[f#]	*k[f#]	*
*g:	*g:	*
*M2/4	*M2/4	*
=1	=1	=1
.	(16qqg/LL	f pp
!	!LO:TX:b:t=2.a volta.	!
!	!LO:TX:b:t=1a volta.	!
!	!LO:TX:a:B:t=Vivace	!
!	!LO:TX:a:B:t=All&colon;o vivace.	!
.	16qqb/JJ)	.
*^	*	*
4GG/	(>16GG\LL	8dd`\L	.
.	16D\	.	.
.	.	(16qqg/LL	.
.	.	16qqb/JJ)	.
.	16B\	8dd`\	.
.	16D\JJ)	.	.
.	.	(16qqg/LL	.
.	.	16qqb-X/JJ)	.
4GG/	(>16GG\LL	8cc#X`\	.
.	16D\	.	.
.	.	(16qqg/LL	.
.	.	16qqb-/JJ)	.
.	16B\	8dd`\J	.
.	16D\JJ)	.	.
=2	=2	=2	=2
.	.	(16qqg/LL	.
.	.	16qqb/JJ)	.
4GG/	(>16GG\LL	8ee`\L	.
.	16D\	.	.
.	.	(16qqg/LL	.
.	.	16qqb/JJ)	.
.	16B\	8dd`\	.
.	16D\JJ)	.	.
.	.	(16qqg/LL	.
.	.	16qqb/JJ)	.
4GG/	(>16GG\LL	8gg`\	.
.	16D\	.	.
!	!	!	!LO:HP:t=cres.---
.	.	(16qqg/LL	<
.	.	16qqb/JJ)	.
.	16B\	8gg`\J	.
.	16D\JJ)	.	.
=3	=3	=3	=3
.	.	(16qqa/LL	.
.	.	16qqcc/JJ)	.
4GG/	(>16GG\LL	8gg`\L	.
.	16D\	.	.
.	.	(16qqa/LL	.
.	.	16qqcc/JJ)	.
.	16A\	8ff#`\	.
.	16D\JJ)	.	.
.	.	(16qqa/LL	.
.	.	16qqcc/JJ)	.
4GG/	(>16GG\LL	8ee`\	.
.	16D\	.	.
.	.	(16qqa/LL	.
.	.	16qqcc/JJ)	.
.	16A\	8ff#`\J	.
.	16D\JJ)	.	.
=4	=4	=4	=4
!	!	!	!LO:HP:t=decres.
.	.	(16qqb/LL	>
.	.	16qqdd/JJ)	.
4GG/	(>16GG\LL	8aa`\L	.
.	16D\	.	.
.	.	(16qqb/LL	.
.	.	16qqdd/JJ)	.
.	16B\	8gg`\	.
.	16D\JJ)	.	.
.	.	(16qqg/LL	.
.	.	16qqb/JJ)	.
4GG/	(>16GG\LL	8ff#`\	.
.	16D\	.	.
.	.	(16qqg/LL	.
.	.	16qqb/JJ)	.
.	16B\	8ee`\J	.
.	16D\JJ)	.	.
=5	=5	=5	=5
.	.	(16qqg/LL	.
.	.	16qqb/JJ)	.
4GG/	(>16GG\LL	8dd`\L	.
.	16D\	.	.
.	.	(16qqg/LL	.
.	.	16qqb/JJ)	.
.	16B\	8dd`\	.
.	16D\JJ)	.	.
.	.	(16qqg/LL	.
.	.	16qqb/JJ)	.
4GG/	(>16GG\LL	8cc#X`\	.
.	16D\	.	.
.	.	(16qqg/LL	.
.	.	16qqb/JJ)	.
.	16B\	8dd`\J	.
.	16D\JJ)	.	.
!LO:LB:g=original	!LO:LB:g=original	!LO:LB:g=original	!
=6	=6	=6	=6
.	.	(16qqg/LL	.
.	.	16qqb/JJ)	.
4GG/	(>16GG\LL	8ee`\L	.
.	16D\	.	.
.	.	(16qqg/LL	.
.	.	16qqb/JJ)	.
.	16B\	8dd`\	.
.	16D\JJ)	.	.
.	.	(16qqg/LL	.
.	.	16qqb/JJ)	.
4GG/	(>16GG\LL	8gg`\	.
.	16D\	.	.
.	.	(16qqg/LL	.
.	.	16qqb/JJ)	.
.	16B\	8gg`\J	.
.	16D\JJ)	.	.
=7	=7	=7	=7
.	.	(16qqa/LL	.
.	.	16qqcc/JJ)	.
4GG/	(>16GG\LL	8gg`\L	.
.	16D\	.	.
.	.	(16qqa/LL	.
.	.	16qqcc/JJ)	.
.	16A\	8ff#`\	.
.	16D\JJ)	.	.
.	.	(16qqa/LL	.
.	.	16qqcc/JJ)	.
4GG/	(>16GG\LL	8ee`\	.
.	16D\	.	.
.	.	(16qqa/LL	.
.	.	16qqcc/JJ)	.
.	16A\	8ff#`\J	.
.	16D\JJ)	.	.
=8	=8	=8	=8
.	.	(16qqg/LL	.
.	.	16qqb/JJ)	.
4GG/	(>16GG\LL	2gg\	.
.	16D\	.	.
.	16B\	.	.
.	16D\JJ)	.	.
4GG/	(>16GG\LL	.	.
.	16D\	.	.
.	16B\	.	.
.	16D\JJ)	.	.
=9:|!|:	=9:|!|:	=9:|!|:	=9:|!|:
.	.	(16qqg/LL	f
.	.	16qqcc/JJ)	.
4C/	(>16C\LL	8gg`\L	.
.	16G\	.	.
.	.	(16qqg/LL	.
.	.	16qqcc/JJ)	.
.	16e\	8gg`\	.
.	16G\JJ)	.	.
.	.	(16qqg/LL	.
.	.	16qqcc/JJ)	.
4C/	(>16C\LL	8ff#`\	.
.	16G\	.	.
.	.	(16qqg/LL	.
.	.	16qqcc/JJ)	.
.	16e\	8ee`\J	.
.	16G\JJ)	.	.
=10	=10	=10	=10
.	.	(16qqg/LL	.
.	.	16qqb/JJ)	.
4GG/	(>16GG\LL	8ee`\L	.
.	16D\	.	.
.	.	(16qqg/LL	.
.	.	16qqb/JJ)	.
.	16B\	8dd`\	.
.	16D\JJ)	.	.
.	.	(16qqg/LL	.
.	.	16qqb/JJ)	.
4GG/	(>16GG\LL	8cc#X`\	.
.	16D\	.	.
.	.	(16qqg/LL	.
.	.	16qqb/JJ)	.
.	16B\	8dd`\J	.
.	16D\JJ)	.	.
!LO:LB:g=original	!LO:LB:g=original	!LO:LB:g=original	!
=11	=11	=11	=11
.	.	(16qqg/LL	pp
.	.	16qqcc/JJ)	.
4C/	16C\LL	8gg`\L	.
.	16G\	.	.
.	.	(16qqg/LL	.
!	!	!LO:TX:b:i:t=ritenuto	!
.	.	16qqcc/JJ)	.
.	16e\	8gg`\	.
.	16G\JJ	.	.
.	.	(16qqg/LL	.
.	.	16qqcc/JJ)	.
4C/	16C\LL	8ff#`\	.
.	16G\	.	.
.	.	(16qqg/LL	.
.	.	16qqcc/JJ)	.
.	16e\	8gg`\J	.
.	16G\JJ	.	.
=12	=12	=12	=12
.	.	(16qqg/LL	.
.	.	16qqdd/JJ)	.
4GG/	(>16GG\LL	2bb^^\	.
.	16D\	.	.
.	16B\	.	.
.	16D\JJ)	.	.
4GG/	(>16GG\LL	.	.
.	16D\	.	.
.	16B\	.	.
.	16D\JJ)	.	.
=13	=13	=13	=13
.	.	(16qqg/LL	f
.	.	16qqcc#X/JJ)	.
4AA/	(>16AA\LL	8aa`\L	.
.	16E\	.	.
.	.	(16qqg/LL	.
.	.	16qqcc#/JJ)	.
.	16c#X\	8aa`\	.
.	16E\JJ)	.	.
.	.	(16qqg/LL	.
.	.	16qqcc#/JJ)	.
4AA/	(>16AA\LL	8bb`\	.
.	16E\	.	.
.	.	(16qqg/LL	.
.	.	16qqcc#/JJ)	.
.	16c#\	8aa`\J	.
.	16E\JJ)	.	.
=14	=14	=14	=14
.	.	(16qqcc/LL	.
.	.	16qqff#/JJ)	.
4D/	(>16D\LL	8ccc`\L	.
.	16F#\	.	.
.	.	(16qqcc/LL	.
.	.	16qqff#/JJ)	.
.	16cn\	8ccc`\	.
.	16F#\JJ)	.	.
.	.	(16qqcc/LL	.
.	.	16qqff#/JJ)	.
(16D\LL	4ryy	8ddd`\	.
16F#\	.	.	.
.	.	(16qqcc/LL	.
.	.	16qqff#/JJ)	.
16c\	.	8ccc`\J	.
16F#\JJ)	.	.	.
=15	=15	=15	=15
.	.	(16qqb/LL	.
.	.	16qqdd/JJ)	.
4GG/	(>16GG\LL	8bb`\L	.
.	16D\	.	.
.	.	(16qqb/LL	.
.	.	16qqdd/JJ)	.
.	16B\	8gg`\	.
.	16D\JJ)	.	.
.	.	(16qqcc/LL	.
.	.	16qqee/JJ)	.
4GG/	(>16GG\LL	8aa`\	.
.	16C\	.	.
.	.	(16qqa/LL	.
.	.	16qqcc/JJ)	.
.	16D\	8ff#`\J	.
.	16F#\JJ)	.	.
!LO:LB:g=original	!LO:LB:g=original	!LO:LB:g=original	!
=16	=16	=16	=16
.	.	(16qqg/LL	.
.	.	16qqb/JJ)	.
4GG/	(>16GG\LL	2gg\	.
.	16D\	.	.
.	16B\	.	.
.	16D\JJ)	.	.
4GG/	(>16GG\LL	.	.
.	16D\	.	.
.	16B\	.	.
.	16D\JJ)	.	.
*v	*v	*	*
==17	==17	==17
.	(16qqg/LL	.
.	16qqb/JJ)	.
(>16GG\LL	2gg\	.
16BB\	.	.
16D\	.	.
16G\JJ	.	.
16F#\LL	.	.
16G\	.	.
16Fn\	.	.
16D\JJ)	.	.
=18||	=18||	=18||
*k[]	*k[]	*
*^	*	*
!	!	!LO:TX:a:i:t=poco ritenuto	!
4C/	(>16C\LL	(32aa\LLL	p
.	.	32gg\	.
.	16G\	32ff#X\	<
.	.	32gg\JJJ	.
!	!	!LO:TX:b:i:t=lusingando	!
.	16e\	32aa\LLL	.
.	.	32bb\	.
.	16G\JJ)	32ccc\	.
.	.	32ddd\JJJ	.
!	!	!LO:TX:t=P:problem:8va usunięte z powodu problemu konwersji	!
*	*	*8va	*
4C/	(>16C\LL	32eee\LLL	[
.	.	32fff\	.
.	16G\	32fff#X\	.
.	.	32ggg\JJJ	.
.	16e\	32aaa\LLL	>
.	.	32ggg\	.
.	16G\JJ)	32fff#\	.
.	.	32ggg\JJJ	.
=19	=19	=19	=19
4C/	(>16C\LL	32eeee\LLL	.
.	.	32cccc\	.
.	16G\	32ggg\	]
.	.	32eee\JJJ	.
*	*	*X8va	*
.	16e\	32ccc\LLL	.
.	.	32gg\	.
.	16G\JJ)	32ee\	.
.	.	32cc\JJJ	.
4C/	(>16C\LL	8g/)	.
.	16G\	.	.
.	16e\	8r	.
.	16G\JJ)	.	.
!LO:PB:g=original	!LO:PB:g=original	!LO:PB:g=original	!
=20	=20	=20	=20
4GG/	(>16GG\LL	(32g\LLL	.
.	.	32a\	.
.	16D\	32b\	.
.	.	32cc\JJJ	.
.	16B\ 16f	32dd\LLL	.
.	.	32ee\	.
.	16D\JJ)	32ff\	.
.	.	32ff#X\JJJ	.
4GG/	(>16GG\LL	32aa\LLL	.
.	.	32gg\	.
.	16D\	32ff#\	.
.	.	32gg\JJJ	.
.	16B\ 16f	16.fffn\LL	.
.	16D\JJ)	.	.
.	.	32bb\JJk)	.
*v	*v	*	*
=21	=21	=21
*	*8va	*
*^	*	*
4C/	(>16C\LL	(32ddd\LLL	.
.	.	32ccc\	.
.	16G\	32bb\	.
.	.	32ccc\JJJ	.
.	16c\ 16e	32ddd\LLL	.
.	.	32eee\	.
.	16G\JJ)	32fff\	.
.	.	32ggg\JJJ	.
4C/	(>16C\LL	32aaa\LLL	.
.	.	32bbb\	.
.	16G\	32cccc\	.
.	.	32dddd\JJJ	.
.	16c\ 16e	16.eeee\LL	.
.	16G\JJ)	.	.
.	.	32cccc\JJk)	.
*v	*v	*	*
*	*X8va	*
=22	=22	=22
*^	*	*
4C/	(>16C\LL	(32aa\LLL	.
.	.	32gg\	.
.	16G\	32ff#X\	.
.	.	32gg\JJJ	.
!	!	!	!LO:HP:t=cres.
.	16c\ 16e	32aa\LLL	<
.	.	32bb\	.
.	16G\JJ)	32ccc\	.
.	.	32ddd\JJJ	.
*	*	*8va	*
4C/	(>16C\LL	32eee\LLL	.
.	.	32fff#\	.
.	16G\	32fff#\	.
.	.	32ggg\JJJ	.
.	16e\	32aaa\LLL	.
.	.	32ggg\	.
.	16G\JJ)	32fff#\	.
.	.	32ggg\JJJ)	.
!LO:LB:g=original	!LO:LB:g=original	!LO:LB:g=original	!
=23	=23	=23	=23
8C/	16C\LL	32eeee\LLL	f
.	.	32cccc\	.
.	16E\JJ 16G 16c	32ggg\	.
.	.	32eee\JJJ	.
4.C#X/	16C#\LL	32bbb-X\LLL	.
.	.	32ggg\	.
.	16E\ 16G 16B-X	32eee\	.
.	.	32ccc#X\JJJ	.
*	*	*X8va	*
.	16E\ 16G 16B-	32bb-X\LLL	.
.	.	32gg\	.
.	16E\JJ 16G 16B-	32ee\	.
.	.	32cc#X\JJJ	.
.	16E\LL 16G 16B-	32b-X/LLL	.
.	.	32g/	.
.	16E\JJ 16G 16B-	32e/	.
.	.	32c#X/JJJ	.
=24	=24	=24	=24
*	*	*^	*
16r	4D\	16.d/LL	32r	.
.	.	.	(32g\LLL	.
8G^^</L 8B	.	.	32b\JJJ)	.
.	.	32ee/JJk	32r	.
.	.	16.dd/LL	32r	.
.	.	.	(32g\LLL	.
16G/Jk 16B	.	.	32b\JJJ)	.
!	!	!	!	!LO:HP:t=cres.
.	.	32gg/JJk	32r	<
16ryy	4D\	16.ff#X/LL	32r	.
.	.	.	(32a\LLL	.
8F#X/L 8A 8c	.	.	32cc\JJJ)	.
.	.	32bb/JJk	32r	.
.	.	16.aa/LL	32r	.
.	.	.	(32dd\LLL	.
16F#/Jk 16A 16c	.	.	32ff#\JJJ)	.
.	.	32ddd/JJk	32r	.
*v	*v	*	*	*
*	*v	*v	*
=25	=25	=25
16G\KL 16B	32ff#X\LLL	f
.	32gg\	.
8G\ 8B	32bb\	.
.	32ddd\JJJ	.
.	32ggg\LLL	.
.	32ddd\	.
8D\ 8G	32bb\	.
.	32gg\JJJ	.
.	32dd/LLL	.
.	32b/	.
!	!LO:TUP:b:problem:klamra łukowa	!
16BB\Jk 16D	(48g/	.
.	48d/	.
.	48B/JJJ)	.
16GGG\ 16GG	16G/	.
!	!LO:TX:t=P:problem:podwójna kreska końcowa	!
16r	16r	.
!LO:LB:g=original	!LO:LB:g=original	!
=26:|!	=26:|!	=26:|!
4G\ 4B	32ff#X\LLL	.
.	32gg\	.
.	32bb\	.
.	32ddd\JJJ	.
.	32ggg\LLL	.
.	32ddd\	.
.	32bb\	.
.	32gg\JJJ	.
8GG\ 8G	32dd/LLL	.
.	32b/	.
.	32g/	.
.	32d/JJJ	.
8r	32B<\LLL	.
.	32G<\	.
.	32g/	.
.	32G<\JJJ	.
=27	=27	=27
16EEE`\ 16GG	(32fn\LLL	p
.	32G</	.
16r	32B</	.
.	32d</JJJ	.
16GG`\ 16BB 16D 16F	32f\LLL	.
.	32g\	.
16r	32gg\	.
.	32g\JJJ)	.
16GGG`\ 16FF	(32f\LLL	.
.	32G</	.
16r	32B<\	.
.	32d/JJJ	.
16GG`\ 16BB 16D 16F	32f\LLL	.
.	32g\	.
16r	32gg\	.
.	32g\JJJ)	.
=28	=28	=28
16GGG`\ 16GG	(32e\LLL	.
.	32G</	.
16r	32c\	.
.	32e\JJJ	.
16GG`\ 16C 16E 16G	32g\LLL	.
.	32g\	.
16r	32gg\	.
.	32g\JJJ)	.
16GGG`\ 16GG	(32e-X\LLL	.
.	32G</	.
16r	32c\	.
.	32e-\JJJ	.
16GG`\ 16C 16E-X 16G	32g\LLL	.
.	32g\	.
16r	32gg\	.
.	32g\JJJ)	.
!LO:LB:g=original	!LO:LB:g=original	!LO:LB:g=original
=29	=29	=29
16GGG`\ 16GG	(32f#X\LLL	.
.	32G</	.
16r	32c</	.
.	32f#\JJJ	.
16GG`\ 16C 16D 16F#X	32a\LLL	.
.	32a\	.
16r	32aa\	.
.	32a\JJJ)	.
16GGG`\ 16GG	(32cc\LLL	.
.	32d\	.
16r	32f#\	.
.	32a\JJJ	.
16GG`\ 16C 16D 16F#	32cc\LLL	.
.	32dd\	.
16r	32ddd\	.
.	32dd\JJJ)	.
=30	=30	=30
16GGG`/ 16GG	(32cc#X^^\LLL	rf
.	32g\	.
16r	32b-X\	>
.	32cc#\JJJ	.
16GG`\ 16BB-X 16C#X 16E	32ee\LLL	]
.	32ee\	.
16r	32eee\	.
.	32ee\JJJ)	.
16GGG`/ 16GG	(32dd\LLL	.
.	32g\	.
16r	32b-\	.
.	32dd\JJJ	.
16GG`/ 16BBn 16D	32gg\LLL	.
.	32gg\	.
16r	32ggg\	.
.	32gg\JJJ)	.
=31	=31	=31
!	!LO:TX:b:t=piu forte ed animato.	!
16GGG'/LL 16GG	(32ffn\LLL	.
.	32g\	.
16GG'/	32b\	.
.	32dd\JJJ	.
16BB'/ 16D 16F	32ff\LLL	.
.	32gg\	.
16GG'/JJ	32ggg\	.
.	32gg\JJJ)	.
16GGG'/LL 16GG	(32ff\LLL	.
.	32g\	.
16GG'/	32b\	.
.	32dd\JJJ	.
16BB'/ 16D 16F	32ff\LLL	.
.	32gg\	.
16GG'/JJ	32ggg\	.
.	32gg\JJJ)	.
!LO:LB:g=original	!LO:LB:g=original	!LO:LB:g=original
=32	=32	=32
16GGG'/LL 16GG	(32ee\LLL	.
.	32g\	.
16GG'/	32cc\	.
.	32ee\JJJ	.
16C'/ 16E 16G	32gg\LLL	.
.	32gg\	.
16GG'/JJ	32ggg\	.
.	32gg\JJJ)	.
16GGG'/LL 16GG	(32ee-X\LLL	.
.	32g\	.
16GG'/	32cc\	.
.	32ee-\JJJ	.
16C'/ 16E-X 16G	32gg\LLL	.
.	32gg\	.
16GG'/JJ	32ggg\	.
.	32gg\JJJ)	.
=33	=33	=33
16GGG'/LL 16GG	(32ff#X\LLL	.
.	32a\	.
16GG'/	32cc\	.
.	32ff#\JJJ	.
16C'/ 16D 16F#X	32aa\LLL	.
.	32aa\	.
16GG'/JJ	32aaa\	.
.	32aa\JJJ)	.
16GGG'/LL 16GG	(32ddd\LLL	.
.	32dd\	.
16GG'/	32ff#\	.
.	32aa\JJJ	.
16C'/ 16D 16F#	32ddd\LLL	.
.	32ddd\	.
16GG'/JJ	32dddd\	.
.	32ddd\JJJ)	.
=34	=34	=34
*	*8va	*
32GGG/LLL	(32eeee\LLL	.
32BBB/	32dddd\	.
32DD/	32bbb\	.
32GG/JJJ	32ggg\JJJ	.
32GGG/LLL	32eee\LLL	.
32BBB/	32ddd\	.
32DD/	32bb\	.
32GG/JJJ	32gg\JJJ)	.
32GG/LLL	(32aaa\LLL	.
32BB/	32ggg\	.
32D/	32ddd\	.
32G/JJJ	32bb\JJJ	.
32GG/LLL	32aa/LLL	.
32BB/	32gg/	.
32D/	32dd/	.
32G/JJJ	32b/JJJ)	.
!LO:LB:g=original	!LO:LB:g=original	!
*	*X8va	*
=35	=35	=35
16GGG'/LL 16GG	(32ff#X\LLL	.
.	32a\	.
16GG'/	32cc\	.
.	32ff#\JJJ	.
16C'/ 16D 16F#X	32aa\LLL	.
.	32aa\	.
16GG'/JJ	32aaa\	.
.	32aa\JJJ)	.
16GGG'/LL 16GG	(32ddd\LLL	.
.	32dd\	.
16GG'/	32ff#\	.
.	32aa\JJJ	.
16C'/ 16D 16F#	32ddd\LLL	.
.	32ddd\	.
16GG'/JJ	32dddd\	.
.	32ddd\JJJ)	.
=36	=36	=36
*	*8va	*
32GGG/LLL	(32eeee\LLL	.
32BBB/	32dddd\	.
32DD/	32bbb\	.
32GG/JJJ	32ggg\JJJ)	.
32GGG/LLL	(32eee\LLL	.
32BBB/	32ddd\	.
32DD/	32bb\	.
32GG/JJJ	32gg\JJJ)	.
32GG/LLL	(32aaa\LLL	.
32BB/	32ggg\	.
32D/	32ddd\	.
32G/JJJ	32bb\JJJ)	.
32GG/LLL	32aa/LLL	.
32BB/	32gg/	.
32D/	32dd/	.
32G/JJJ	32b/JJJ	.
*	*X8va	*
=37	=37	=37
16GGG'/LL 16GG	(32ff#X\LLL	.
.	32a\	.
16GG'/	32cc\	.
.	32ff#\JJJ	.
16C'/ 16D 16F#X	32aa\LLL	.
.	32aa\	.
16GG'/JJ	32aaa\	.
.	32aa\JJJ)	.
16GGG'/LL 16GG	(32ddd\LLL	.
.	32dd\	.
16GG'/	32ff#\	.
.	32aa\JJJ	.
16C'/ 16D 16F#	32ddd\LLL	.
.	32ddd\	.
16GG'/JJ	32dddd\	.
.	32ddd\JJJ)	.
!LO:LB:g=original	!LO:LB:g=original	!LO:LB:g=original
=38	=38	=38
*	*8va	*
(32GGG/LLL	(32eeee^\LLL	f
32BBB/	32dddd\	.
32DD/	32bbb\	.
32GG/JJJ)	32ggg\JJJ)	.
(32GGG/LLL	(32cccc^\LLL	.
32BBB/	32bbb\	.
32DD/	32ggg\	.
32GG/JJJ)	32ddd\JJJ)	.
(32GGG/LLL	(32aaa^\LLL	.
32BBB/	32ggg\	.
32DD/	32ddd\	.
32GG/JJJ)	32bb\JJJ)	.
(32GGG/LLL	(32eee^\LLL	.
32BBB/	32ddd\	.
32DD/	32bb\	.
32GG/JJJ)	32gg\JJJ)	.
*	*X8va	*
=39	=39	=39
(32GGG/LLL	(32ccc^\LLL	.
32BBB/	32bb\	.
32DD/	32gg\	.
32GG/JJJ)	32dd\JJJ)	.
(32GGG/LLL	(32aa^\LLL	.
32BBB/	32gg\	.
32DD/	32dd\	.
32GG/JJJ)	32b\JJJ)	.
(32GGG/LLL	(32ee^\LLL	.
32BBB/	32dd\	.
32DD/	32b\	.
32GG/JJJ)	32g\JJJ)	.
(32GGG/LLL	(32cc^\LLL	.
32BBB/	32b\	.
32DD/	32g\	.
32GG/JJJ)	32d\JJJ)	.
=40	=40	=40
32GGG\LLL	(32a^/LLL	.
32BBB\	32g/	.
32DD\	32d/	.
32GG\JJJ	32B/JJJ)	.
32GGG\LLL	(>32e\LLL	.
32BBB\	32d\	.
32DD\	32B</	.
32GG\JJJ	32G</JJJ)	.
32GGG\LLL	(32c<^/LLL	.
32BBB\	32B</	.
32DD\	32G</	.
32GG\JJJ	32D</JJJ	.
32GGG\LLL	32A<^/LLL	.
32BBB\	32G</	.
32DD\	32D</	.
32GG\JJJ	32BB</JJJ)	.
=41	=41	=41
2GGG\	2GG</	.
!LO:LB:g=original	!LO:LB:g=original	!
=42||	=42||	=42||
*k[b-e-]	*k[b-e-]	*
*M4/4	*M4/4	*
*met(c)	*met(c)	*
!	!LO:TX:a:B:t=Tempo de l`Introduzione.	!
!	!LO:TX:b:i:t=dolce.	!
!	!LO:TX:a:B:t=Moderato.	!
1r	[2g/	p
.	8g/L]	.
.	8a/	<
.	8b-/	.
.	8cc/J	[[
=43	=43	=43
*	*^	*
(1B-	4..dd/	(1d	.
.	16g/	.	.
.	2g/	.	.
=44	=44	=44	=44
1c	4..ee-/	1e-	.
!	!	!	!LO:HP:t=cres.
.	16g/	.	<
.	2g/	.	.
=45	=45	=45	=45
1B-)	4..dd/	1d)	.
.	16g/	.	>
.	2g/	.	]
=46	=46	=46	=46
*^	*	*	*
!	!	!LO:TX:b:i:t=piu animato.	!	!
2A/	8.A\L	2g/ 2cc#X	2en\ 2g	rf
.	16AA/Jk	.	.	.
.	4AA/	.	.	.
2D/	8.D\L	2a/ 2ccn	2d\ 2f#X	.
.	16DD/Jk	.	.	.
.	4DD/	.	.	.
=47	=47	=47	=47	=47
2G/	8.G\L	2g/ 2bn	2d\ 2g	.
.	16GG/Jk	.	.	.
.	4GG/	.	.	.
2GG/	8.GG/L	2g/ 2b-X	2d\ 2g	.
.	16GGG/Jk	.	.	.
.	4GGG/	.	.	.
!LO:LB:g=original	!LO:LB:g=original	!LO:LB:g=original	!LO:LB:g=original	!
=48	=48	=48	=48	=48
!	!	!LO:TX:b:i:t=rall. espress&colon;	!	!
2A/	8.A\L	2a/	2c#X\ 2en 2g	.
.	16AA/Jk	.	.	.
.	4AA/	.	.	.
2D/	8.D\L	4.b-^^/	2cn\ 2d 2f#X	.
.	16DD/Jk	.	.	.
.	4DD/	.	.	.
.	.	8a/	.	.
=49	=49	=49	=49	=49
2GG\	2GGG\	2d/ 2g	2G</ 2B-	.
4r	4ryy	4r	4ryy	.
16r	16ryy	16r	16ryy	f
!	!	!LO:TX:b:B:t=vivo	!	!
16A'/LL	16G'\LL	16a'/LL	16g'\LL	.
16A'/	16E-'\ 16G	16a'/ 16cc	16g'\	.
16A'/JJ	16D'\JJ 16G	16a'/JJ 16dd	16g'\JJ	.
=50	=50	=50	=50	=50
8A'/	8AA'\ 8G	8a/ 8ee-	8g\	.
8r	8.ryy	8r	8.ryy	.
16r	.	16r	.	.
*clefG2	*	*	*	*
!	!	!LO:TX:b:i:t=poco riten.	!	!
16a'/LL	16g'\LL	16aa'/LL	16gg'\LL	pp
16a'/	16e-'\ 16g	16aa'/ 16ccc	16gg'\	.
16a'/JJ	16d'\JJ 16g	16aa'/JJ 16ddd	16gg'\JJ	.
8a'/	8c'\ 8g	8aa'/ 8eee-	8gg'\	.
8r	4.ryy	8r	4.ryy	.
4r	.	4r	.	.
*v	*v	*	*	*
*	*v	*v	*
=51	=51	=51
4r	4r	.
*clefF4	*	*
!	!LO:TX:a:B:t=Lento	!
!	!LO:TX:a:B:t=lento	!
4GGG^^</ 4GG	4d^^</ 4g 4b-	ff
!	!LO:TX:b:i:t=pesante.	!
4AAA^^</ 4AA	4c#X^^</ 4en 4g 4a	.
4DD^^</ 4D	4cn^^</ 4d 4f#X 4a	.
=52	=52	=52
2GGG\ 2GG	2G/ 2B- 2d 2g	.
!LO:TX:b:t=Fine.	!	!
2r;	2r;	.
==	==	==
*-	*-	*-
!!!RDF**kern: > = above
!!!RDF**kern: < = below
!!!system-decoration: [(s1,s2)]
!!!ENC: Filip Voros
!!!END: 2022-08-02
!!!ENC: Julita Ruszuk
!!!END: 2022-09-08
!!!YEC: Copyright 2022 Narodowy Instytut Fryderyka Chopina (https://polishscores.org)
!!!YEM: License CC-BY-4.0 (https://creativecommons.org/licenses/by/4.0)
